Newaita-dark/actions/32/dialog-xml-editor.svg

<?xml version="1.0" encoding="UTF-8"?>
<svg xmlns="http://www.w3.org/2000/svg" xmlns:xlink="http://www.w3.org/1999/xlink" width="32pt" height="32pt" viewBox="0 0 32 32" version="1.1">
<g id="surface1">
<path style=" stroke:none;fill-rule:nonzero;fill:rgb(47.058824%,56.470591%,61.176473%);fill-opacity:0.984314;" d="M 19.644531 2.070312 C 20.347656 2.257812 20.769531 2.984375 20.578125 3.6875 L 13.730469 29.25 C 13.542969 29.953125 12.816406 30.375 12.109375 30.183594 C 11.402344 29.996094 10.984375 29.269531 11.175781 28.5625 L 18.023438 3.003906 C 18.210938 2.296875 18.9375 1.878906 19.644531 2.070312 Z M 19.644531 2.070312 "/>
<path style=" stroke:none;fill-rule:evenodd;fill:rgb(74.117649%,74.117649%,74.117649%);fill-opacity:1;" d="M 9.902344 8.53125 C 9.652344 8.539062 9.414062 8.644531 9.238281 8.828125 L 2.621094 15.441406 C 2.246094 15.820312 2.246094 16.433594 2.621094 16.8125 L 9.238281 23.425781 C 9.480469 23.675781 9.839844 23.777344 10.179688 23.6875 C 10.515625 23.597656 10.777344 23.335938 10.867188 22.996094 C 10.957031 22.660156 10.859375 22.300781 10.609375 22.058594 L 4.679688 16.125 L 10.609375 10.195312 C 10.894531 9.917969 10.980469 9.492188 10.824219 9.125 C 10.667969 8.757812 10.304688 8.519531 9.902344 8.53125 Z M 9.902344 8.53125 "/>
<path style=" stroke:none;fill-rule:evenodd;fill:rgb(74.117649%,74.117649%,74.117649%);fill-opacity:1;" d="M 21.894531 8.53125 C 22.148438 8.539062 22.386719 8.644531 22.5625 8.828125 L 29.175781 15.441406 C 29.554688 15.820312 29.554688 16.433594 29.175781 16.8125 L 22.5625 23.425781 C 22.320312 23.675781 21.960938 23.777344 21.621094 23.6875 C 21.285156 23.597656 21.019531 23.335938 20.933594 22.996094 C 20.84375 22.660156 20.941406 22.300781 21.191406 22.058594 L 27.121094 16.125 L 21.191406 10.195312 C 20.90625 9.917969 20.820312 9.492188 20.976562 9.125 C 21.132812 8.757812 21.496094 8.519531 21.894531 8.53125 Z M 21.894531 8.53125 "/>
</g>
</svg>

<svg xmlns="http://www.w3.org/2000/svg" width="32pt" height="32pt" viewBox="0 0 32 32"><path d="M19.645 2.07a1.32 1.32 0 0 1 .933 1.618L13.73 29.25a1.322 1.322 0 0 1-1.62.934 1.319 1.319 0 0 1-.934-1.622l6.847-25.558a1.319 1.319 0 0 1 1.622-.934zm0 0" fill="#78909c" fill-opacity=".984"/><path d="M9.902 8.531a.96.96 0 0 0-.664.297l-6.617 6.613a.976.976 0 0 0 0 1.371l6.617 6.614a.966.966 0 0 0 1.63-.43.96.96 0 0 0-.259-.937l-5.93-5.934 5.93-5.93a.972.972 0 0 0-.707-1.664zm0 0M21.895 8.531a.962.962 0 0 1 .668.297l6.613 6.613a.969.969 0 0 1 0 1.371l-6.613 6.614a.966.966 0 0 1-1.63-.43.96.96 0 0 1 .258-.937l5.93-5.934-5.93-5.93a.97.97 0 1 1 .703-1.664zm0 0" fill-rule="evenodd" fill="#bdbdbd"/></svg>
